assets/toolbar/action.svg

<?xml version="1.0" encoding="utf-8"?>
<svg width="800px" height="800px" viewBox="0 0 16 16" xmlns="http://www.w3.org/2000/svg" fill="#000000">
  <path fill-rule="evenodd" clip-rule="evenodd" d="M 3.04 10 L 5.62 10 L 4.701 11.014 L 2.54 11 L 2.04 10.5 L 2.04 1.5 L 2.54 1 L 14.54 1 L 15.04 1.5 L 15.006 6.843 L 13.885 6.93 L 14.04 2 L 3.04 2 L 3.04 10 Z M 8.984 10.445 L 6.59 15.972 L 14.743 7.562 L 11.414 7.814 L 12.916 1.883 L 5.686 10.644 L 8.984 10.445 Z M 6.95 7 L 4.04 7 L 4.04 6 L 7.4 6 L 6.95 7 Z M 6.05 9 L 4.04 9 L 4.04 8 L 6.5 8 L 6.05 9 Z" style="opacity: 0.9;"/>
</svg>

<?xml version="1.0" encoding="utf-8"?><!-- Uploaded to: SVG Repo, www.svgrepo.com, Generator: SVG Repo Mixer Tools -->
<svg width="800px" height="800px" viewBox="0 0 16 16" xmlns="http://www.w3.org/2000/svg" fill="#000000"><path fill-rule="evenodd" clip-rule="evenodd" d="M3.04 10h2.58l.65 1H2.54l-.5-.5v-9l.5-.5h12l.5.5v4.77l-1-1.75V2h-11v8zm5.54 1l-1.41 3.47h2.2L15 8.7 14.27 7h-1.63l.82-1.46L12.63 4H9.76l-.92.59-2.28 5L7.47 11h1.11zm1.18-6h2.87l-1.87 3h3.51l-5.76 5.84L10.2 10H7.47l2.29-5zM6.95 7H4.04V6H7.4l-.45 1zm-.9 2H4.04V8H6.5l-.45 1z"/></svg>
